X:272
T: AUF IHR MEINE DEUTSCHEN BRUEDER
N: B0322
O: Europa, Mitteleuropa, Deutschland
R: Trink -, Vaterlands - Lied
M: 4/4
L: 1/8
K: Bb
 | B3FG2D2 | EFGABFF2 |
dBfdc3B | A2G2F2z2 |
B3FG2D2 | EFGABFF2 |
dBfdc3B | A2G2F2z2 |
F2B2G3G | c3BBAGF |
e3cd3B | BABcd2c2 |
F2B2G3G | c3BBAGF |
e3cd2ec | B2A2B2z2

@@@ Tune index: 2075
